assets/home-tab/Asset/bills&recharges.svg

<svg width="27" height="27" viewBox="0 0 27 27" fill="none" xmlns="http://www.w3.org/2000/svg">
<path d="M18.9466 8.04474C18.9466 8.28134 18.9395 8.51317 18.924 8.7355C18.9097 8.95783 18.861 9.2503 18.7813 9.6153C18.7005 9.9791 18.5947 10.3132 18.4627 10.6175C18.3319 10.9219 18.1381 11.2417 17.8813 11.5758C17.6257 11.9111 17.3225 12.1881 16.9706 12.4116C16.6199 12.6339 16.1741 12.8194 15.6331 12.968C15.0921 13.1166 14.4858 13.1915 13.8129 13.1915H8.47704C8.08233 13.1915 7.76251 12.867 7.76251 12.4651V10.4214H7.76489C8.58999 10.4214 9.6291 10.4214 10.7158 10.4202H13.9591C14.374 10.4202 14.6879 10.2121 14.8437 9.83524C14.997 9.4643 14.9245 9.09931 14.6368 8.80565C13.6179 7.76535 12.5883 6.7203 11.6277 5.74777C11.4065 5.52306 11.1307 5.43152 10.8311 5.48145C10.4661 5.54328 10.2105 5.76085 10.0952 6.1092C9.97626 6.47182 10.0547 6.80828 10.3234 7.0841C10.717 7.48596 11.114 7.88662 11.529 8.30512L11.7561 8.53576H7.76132L7.76013 3.42345C7.76132 3.02397 8.07995 2.6994 8.47348 2.6994H13.8129C15.2598 2.6994 16.4772 3.17853 17.464 4.13679C18.4532 5.09268 18.9466 6.39691 18.9466 8.04474Z" fill="#2266BE"/>
<path d="M18.9464 18.9065C18.9464 19.1431 18.9392 19.3749 18.9238 19.5973C18.9095 19.8196 18.8608 20.1121 18.7811 20.477C18.7003 20.8409 18.5945 21.1749 18.4625 21.4793C18.3317 21.7837 18.1379 22.1035 17.8811 22.4376C17.6255 22.7716 17.3223 23.0499 16.9704 23.2734C16.6197 23.4957 16.1738 23.6812 15.6329 23.8298C15.0919 23.9784 14.4856 24.0533 13.8127 24.0533H8.47683C8.08211 24.0533 7.7623 23.7287 7.7623 23.3269V22.2901L7.76111 14.2828C7.7623 13.8833 8.08093 13.5588 8.47445 13.5588H13.8139C15.2608 13.5588 16.4782 14.0379 17.465 14.9962C17.8882 15.4087 18.2223 15.8831 18.4649 16.4229C17.7135 16.4229 16.7826 16.4229 15.7981 16.4241H12.2469C11.8319 16.4241 11.5181 16.6309 11.3611 17.009C11.2089 17.3799 11.2815 17.7461 11.5692 18.0386C12.581 19.0718 13.6141 20.1192 14.5783 21.0965C14.7602 21.2808 14.9778 21.3759 15.2168 21.3759C15.2691 21.3759 15.3214 21.3711 15.3761 21.3616C15.7411 21.2998 15.9967 21.0822 16.112 20.7327C16.2309 20.3712 16.1524 20.0348 15.8826 19.7589C15.489 19.3559 15.0919 18.9552 14.6758 18.5367L14.4511 18.3085H18.9226C18.9381 18.5046 18.9464 18.7032 18.9464 18.9065Z" fill="#2266BE"/>
</svg>

<svg xmlns="http://www.w3.org/2000/svg" width="27" height="27" fill="none" viewBox="0 0 27 27"><path fill="#2266be" d="M18.947 8.045q0 .356-.023.69a6 6 0 0 1-.143.88q-.12.546-.318 1.002-.196.458-.582.959a3.5 3.5 0 0 1-.91.836q-.527.333-1.338.556a7 7 0 0 1-1.82.223H8.477a.72.72 0 0 1-.714-.726v-2.044h6.196c.415 0 .729-.209.885-.586.153-.37.08-.736-.207-1.03-1.02-1.04-2.049-2.085-3.01-3.057a.88.88 0 0 0-.796-.267.89.89 0 0 0-.736.628c-.119.363-.04.7.228.975.394.402.791.803 1.206 1.221l.227.23H7.761V3.424a.72.72 0 0 1 .712-.724h5.34q2.17 0 3.651 1.438 1.484 1.435 1.483 3.908m-.001 10.861q0 .355-.022.69a6 6 0 0 1-.143.88q-.12.546-.319 1.002-.195.458-.58.959a3.5 3.5 0 0 1-.912.835q-.525.334-1.337.557a7 7 0 0 1-1.82.223H8.477a.72.72 0 0 1-.715-.726v-9.044a.72.72 0 0 1 .712-.724h5.34q2.17 0 3.651 1.437a4.6 4.6 0 0 1 1 1.427l-2.667.001h-3.551c-.415 0-.729.207-.886.585-.152.37-.08.737.208 1.03 1.012 1.033 2.045 2.08 3.01 3.057a.88.88 0 0 0 .797.266.89.89 0 0 0 .736-.63.91.91 0 0 0-.23-.973c-.393-.403-.79-.804-1.206-1.222l-.225-.229h4.472q.023.294.023.599"/></svg>
